X: 27426
T: Moll Roe
R: slip jig
M: 9/8
K: Gmajor
DGG GAG FGA|BF/G/B GAB c2A|DGG GAG FGA|BF/G/B cAF G3|
DGG GAG FGA|BFGB GAB c3|DGG GAG FGA|BF/G/B cAF GBc||
ddd cAG FED|Add cAB c3|ded cAG FGA|BF/G/B cAF G2B|
ded cAG FED|dF/G/d cAB c3|ded cAG FGA|B/c/dB cAF G3||

